gama.ui.shared/icons_svg/dark/status/status.memory.svg

<svg height="24.75" viewBox="-526.872 -3408.886 24.75 24.75" width="24.75" xmlns="http://www.w3.org/2000/svg"><path d="m-507.38586-3401.844v11.1112c0 1.2273-.99494 2.2222-2.22224 2.2222h-8c-1.2273 0-2.2222-.9949-2.2222-2.2222v-11.1112h-.44445c-.24545 0-.44445-.199-.44445-.4443 0-.2457.199-.4445.44445-.4445h4v-.4444c0-.7364.59695-1.3334 1.33335-1.3334h2.66665c.73638 0 1.33335.597 1.33335 1.3334v.4444h4c.24545 0 .44443.1988.44443.4445 0 .2453-.19898.4443-.44443.4443zm-11.55554 0v11.1112c0 .7364.59694 1.3333 1.3333 1.3333h8c.7364 0 1.33335-.5969 1.33335-1.3333v-11.1112zm7.1111-.8888v-.4444c0-.2455-.199-.4445-.44445-.4445h-2.66665c-.2455 0-.44446.199-.44446.4445v.4444zm0 4c0-.2454.199-.4444.44444-.4444.24546 0 .44446.199.44446.4444v6.2222c0 .2456-.199.4446-.44446.4446-.24544 0-.44444-.199-.44444-.4446zm-4.44445 0c0-.2454.19899-.4444.44445-.4444s.44444.199.44444.4444v6.2222c0 .2456-.19898.4446-.44444.4446s-.44445-.199-.44445-.4446z" fill="#f9b841"/></svg>

<?xml version="1.0" encoding="UTF-8" standalone="no"?>
<!DOCTYPE svg PUBLIC "-//W3C//DTD SVG 1.1//EN" "http://www.w3.org/Graphics/SVG/1.1/DTD/svg11.dtd">
<svg xmlns="http://www.w3.org/2000/svg" xmlns:xl="http://www.w3.org/1999/xlink" version="1.1" xmlns:dc="http://purl.org/dc/elements/1.1/" viewBox="-526.872 -3408.8856 24.75 24.75" width="24.75" height="24.75">
  <defs/>
  <g id="SOURCES" stroke-opacity="1" fill="none" stroke="none" fill-opacity="1" stroke-dasharray="none">
    <title>SOURCES</title>
    <g id="SOURCES_Dark">
      <title>Dark</title>
      <g id="Graphic_11754"/>
      <g id="Graphic_11753">
        <path d="M -507.38586 -3401.844 L -507.38586 -3390.7328 C -507.38586 -3389.5055 -508.3808 -3388.5106 -509.6081 -3388.5106 L -517.6081 -3388.5106 C -518.8354 -3388.5106 -519.8303 -3389.5055 -519.8303 -3390.7328 L -519.8303 -3401.844 L -520.27475 -3401.844 C -520.5202 -3401.844 -520.7192 -3402.043 -520.7192 -3402.2883 C -520.7192 -3402.534 -520.5202 -3402.7328 -520.27475 -3402.7328 L -516.27475 -3402.7328 L -516.27475 -3403.1772 C -516.27475 -3403.9136 -515.6778 -3404.5106 -514.9414 -3404.5106 L -512.27475 -3404.5106 C -511.53837 -3404.5106 -510.9414 -3403.9136 -510.9414 -3403.1772 L -510.9414 -3402.7328 L -506.9414 -3402.7328 C -506.69595 -3402.7328 -506.49697 -3402.534 -506.49697 -3402.2883 C -506.49697 -3402.043 -506.69595 -3401.844 -506.9414 -3401.844 Z M -518.9414 -3401.844 L -518.9414 -3390.7328 C -518.9414 -3389.9964 -518.34446 -3389.3995 -517.6081 -3389.3995 L -509.6081 -3389.3995 C -508.8717 -3389.3995 -508.27475 -3389.9964 -508.27475 -3390.7328 L -508.27475 -3401.844 Z M -511.8303 -3402.7328 L -511.8303 -3403.1772 C -511.8303 -3403.4227 -512.0293 -3403.6217 -512.27475 -3403.6217 L -514.9414 -3403.6217 C -515.1869 -3403.6217 -515.38586 -3403.4227 -515.38586 -3403.1772 L -515.38586 -3402.7328 Z M -511.8303 -3398.7328 C -511.8303 -3398.9782 -511.6313 -3399.1772 -511.38586 -3399.1772 C -511.1404 -3399.1772 -510.9414 -3398.9782 -510.9414 -3398.7328 L -510.9414 -3392.5106 C -510.9414 -3392.265 -511.1404 -3392.066 -511.38586 -3392.066 C -511.6313 -3392.066 -511.8303 -3392.265 -511.8303 -3392.5106 Z M -516.27475 -3398.7328 C -516.27475 -3398.9782 -516.07576 -3399.1772 -515.8303 -3399.1772 C -515.58484 -3399.1772 -515.38586 -3398.9782 -515.38586 -3398.7328 L -515.38586 -3392.5106 C -515.38586 -3392.265 -515.58484 -3392.066 -515.8303 -3392.066 C -516.07576 -3392.066 -516.27475 -3392.265 -516.27475 -3392.5106 Z" fill="#f9b841"/>
      </g>
    </g>
  </g>
</svg>
